X: 37
M:6/8
L:1/8
K:D
|:g|fed edB|ABd e3|fed edB|ABd d3|
f2 d edB|ABd g2 e|faf g2 e|fdd d2:||

